src/icons/svg/alipay.svg

<?xml version="1.0" encoding="UTF-8"?>
<svg width="60px" height="44px" viewBox="0 0 60 44" version="1.1" xmlns="http://www.w3.org/2000/svg" xmlns:xlink="http://www.w3.org/1999/xlink">
    <!-- Generator: Sketch 55.2 (78181) - https://sketchapp.com -->
    <title>支付宝icon@1x</title>
    <desc>Created with Sketch.</desc>
    <g id="页面1" stroke="none" stroke-width="1" fill="none" fill-rule="evenodd">
        <g id="M端-选择支付方式3" transform="translate(-45.000000, -182.000000)" fill="#1296DB">
            <g id="支付宝" transform="translate(45.000000, 182.000000)">
                <path d="M19.5824326,23.9244556 C19.1240481,24.3182482 18.6372125,24.88872 18.4954294,25.6206765 C18.3015648,26.6150773 18.4527527,27.8618769 19.3555325,28.8413357 C20.4473563,30.0276101 22.1014915,30.3505796 22.8149909,30.4062083 C24.7575128,30.5576476 26.8321764,29.527709 28.3917897,28.3514801 C29.0015984,27.8922657 30.0507455,26.9632867 31.0526316,25.5349114 C28.8077338,24.2981572 26.0051088,22.9300548 23.0088555,23.0614031 C21.4822778,23.1371227 20.3858697,23.4752867 19.5824326,23.9244556 M48.4083477,29.8173679 C49.46289,27.3468083 50,24.6856722 50,22.0001221 C50,10.9746692 41.0303113,2 30.0001221,2 C18.9696887,2 10,10.9696887 10,22.0001221 C10,33.0303113 18.9696887,42 30.0001221,42 C36.6552083,42 42.5586823,38.7285116 46.1963821,33.7139059 C42.7587314,32.0049194 37.094662,29.1923183 33.6034468,27.4932928 C31.9385522,29.3926116 29.4774652,31.2919303 26.6942587,32.1220094 C24.946405,32.6396858 23.3739421,32.8399791 21.7237448,32.5029181 C20.0927369,32.1708376 18.8917101,31.4042839 18.1934182,30.6377303 C17.8369236,30.2471048 17.4268645,29.7491061 17.128915,29.1581874 C17.1583095,29.2314297 17.1777431,29.2755216 17.1777431,29.2755216 C17.1777431,29.2755216 17.0068445,28.9825525 16.8750572,28.5137042 C16.8065513,28.2842606 16.7627036,28.044856 16.74327,27.8056956 C16.7285727,27.6347969 16.7235922,27.4638983 16.733309,27.2979801 C16.7188559,26.99505 16.7285727,26.6826473 16.7968345,26.3555473 C16.9580163,25.5645795 17.2998136,24.6465608 18.1690041,23.7870871 C20.0880006,21.9121825 22.6514803,21.8095457 23.9842944,21.8192625 C25.9521191,21.8292234 29.3750725,22.6934335 32.2606717,23.7138449 C33.0566199,22.0145752 33.5693159,20.1934792 33.9013964,18.9824914 L21.9237939,18.9824914 L21.9237939,17.6885445 L28.0761451,17.6885445 L28.0761451,15.0956703 L20.629847,15.0956703 L20.629847,13.8017234 L28.0811256,13.8017234 L28.0811256,11.2090933 C28.0811256,10.8525987 28.1493874,10.5596296 28.7305893,10.5596296 L31.6455831,10.5596296 L31.6455831,13.7969871 L39.7413449,13.7969871 L39.7413449,15.0909339 L31.6406026,15.0909339 L31.6406026,17.6835641 L38.1200539,17.6835641 C38.1200539,17.6835641 37.4708343,21.311547 35.4345037,24.8857213 C39.9511108,26.5020319 46.2987748,28.9872888 48.4083477,29.8173679" id="支付宝icon"></path>
            </g>
        </g>
    </g>
</svg>

<svg width="60" height="44" xmlns="http://www.w3.org/2000/svg"><path d="M19.582 23.924c-.458.394-.945.965-1.087 1.697-.193.994-.042 2.24.86 3.22 1.092 1.187 2.746 1.51 3.46 1.565 1.943.152 4.017-.878 5.577-2.055.61-.459 1.659-1.388 2.66-2.816-2.244-1.237-5.047-2.605-8.043-2.474-1.527.076-2.623.414-3.427.863m28.826 5.893A19.913 19.913 0 0050 22c0-11.025-8.97-20-20-20s-20 8.97-20 20 8.97 20 20 20c6.655 0 12.559-3.271 16.196-8.286a2013.825 2013.825 0 00-12.593-6.22c-1.664 1.899-4.126 3.798-6.909 4.628-1.748.518-3.32.718-4.97.38-1.631-.331-2.832-1.098-3.53-1.864-.357-.39-.767-.889-1.065-1.48l.049.118s-.171-.293-.303-.762a3.465 3.465 0 01-.132-.708 3.54 3.54 0 01-.01-.508 3.69 3.69 0 01.064-.942c.161-.791.503-1.71 1.372-2.569 1.919-1.875 4.482-1.977 5.815-1.968 1.968.01 5.391.874 8.277 1.895.796-1.7 1.308-3.52 1.64-4.732H21.924V17.69h6.152v-2.593H20.63v-1.294h7.451V11.21c0-.356.068-.65.65-.65h2.915v3.238h8.095v1.294h-8.1v2.593h6.48s-.65 3.628-2.686 7.202c4.516 1.616 10.864 4.101 12.973 4.931" fill="#1296DB" fill-rule="evenodd"/></svg>
